src/assets/images/bene15.svg

<svg width="49" height="49" viewBox="0 0 49 49" fill="none" xmlns="http://www.w3.org/2000/svg">
<circle cx="24.5172" cy="24.5465" r="24.0074" fill="url(#paint0_linear_674_14)"/>
<path d="M24.8059 35.3347C24.7399 35.3347 24.6739 35.3292 24.6089 35.3181C24.5324 35.3051 23.8331 35.1786 22.8203 34.7465C22.2204 34.4895 21.642 34.1851 21.0906 33.8361C20.3874 33.3908 19.7281 32.8795 19.1218 32.3092C17.5801 30.8613 16.3552 29.0297 15.4814 26.8653C14.9706 25.6 14.5761 24.2055 14.3089 22.7221C14.0189 21.1084 13.8711 19.3473 13.8711 17.4877C13.8711 17.2606 13.9371 17.0383 14.0611 16.8479C14.185 16.6576 14.3616 16.5074 14.5694 16.4156L22.6474 12.8462C22.7882 12.784 22.9399 12.7501 23.0938 12.7464C23.2477 12.7428 23.4008 12.7695 23.5444 12.825C23.6879 12.8806 23.8192 12.9638 23.9306 13.0701C24.042 13.1764 24.1314 13.3035 24.1936 13.4443C24.2559 13.5851 24.2898 13.7368 24.2934 13.8907C24.2971 14.0446 24.2704 14.1977 24.2148 14.3413C24.1593 14.4849 24.076 14.6161 23.9698 14.7275C23.8635 14.8389 23.7363 14.9283 23.5955 14.9906L16.2244 18.2474C16.2931 21.1607 16.7606 23.7288 17.6166 25.8903C18.3456 27.731 19.3579 29.2831 20.6254 30.5038C21.7507 31.5874 22.8789 32.2097 23.6264 32.5407C24.1313 32.7643 24.5377 32.8895 24.7763 32.9529C25.0164 32.8771 25.4269 32.7305 25.9379 32.4819C26.6931 32.1145 27.832 31.4409 28.9679 30.3186C30.2438 29.058 31.262 27.4935 31.9941 25.6685C32.8481 23.54 33.3157 21.0467 33.3867 18.2471L30.7462 17.0804L24.929 27.3795C24.8401 27.5369 24.716 27.6715 24.5665 27.773C24.4169 27.8745 24.2459 27.94 24.0668 27.9644C23.8877 27.9888 23.7054 27.9715 23.5342 27.9138C23.3629 27.8561 23.2073 27.7596 23.0795 27.6318L20.0235 24.5759C19.8037 24.3561 19.6802 24.0579 19.6802 23.747C19.6802 23.4361 19.8037 23.138 20.0235 22.9182C20.2433 22.6984 20.5415 22.5749 20.8524 22.5749C21.1632 22.5749 21.4614 22.6984 21.6812 22.9182L23.6464 24.8834L29.2274 15.002C29.3706 14.7487 29.6028 14.5576 29.8791 14.466C30.1553 14.3743 30.4557 14.3888 30.7219 14.5064L35.0422 16.4151C35.2501 16.5069 35.4268 16.6572 35.5508 16.8476C35.6748 17.0381 35.7408 17.2605 35.7407 17.4877C35.7407 20.9429 35.1988 24.0237 34.1284 26.6444C33.2568 28.7795 32.0366 30.6143 30.5018 32.0975C27.8552 34.6556 25.176 35.2808 25.0632 35.3061C24.9788 35.3252 24.8925 35.3347 24.8059 35.3347Z" fill="white"/>
<defs>
<linearGradient id="paint0_linear_674_14" x1="24.5172" y1="0.539062" x2="24.5172" y2="48.5539" gradientUnits="userSpaceOnUse">
<stop stop-color="#F4815A"/>
<stop offset="1" stop-color="#F25E53"/>
</linearGradient>
</defs>
</svg>

<svg xmlns="http://www.w3.org/2000/svg" width="49" height="49" fill="none"><circle cx="24.517" cy="24.547" r="24.007" fill="url(#a)"/><path fill="#fff" d="M24.806 35.335q-.1 0-.197-.017c-.077-.013-.776-.14-1.789-.572q-.901-.385-1.73-.91a13 13 0 0 1-1.968-1.527c-1.542-1.448-2.767-3.28-3.64-5.444a21 21 0 0 1-1.173-4.143c-.29-1.614-.438-3.375-.438-5.234a1.17 1.17 0 0 1 .698-1.072l8.078-3.57a1.175 1.175 0 0 1 1.547.598 1.17 1.17 0 0 1-.598 1.547l-7.372 3.256c.07 2.914.537 5.482 1.393 7.643.729 1.841 1.74 3.393 3.008 4.614a10.5 10.5 0 0 0 3.001 2.037c.505.223.912.349 1.15.412a9 9 0 0 0 1.162-.471 11.6 11.6 0 0 0 3.03-2.163c1.276-1.261 2.294-2.825 3.026-4.65.854-2.129 1.322-4.622 1.393-7.422l-2.64-1.167-5.818 10.3a1.173 1.173 0 0 1-1.85.252l-3.056-3.056a1.172 1.172 0 0 1 1.658-1.658l1.965 1.965 5.581-9.881a1.17 1.17 0 0 1 1.495-.496l4.32 1.91a1.17 1.17 0 0 1 .699 1.072c0 3.455-.542 6.536-1.613 9.156-.871 2.136-2.091 3.97-3.626 5.453-2.647 2.559-5.326 3.184-5.439 3.21q-.126.027-.257.028"/><defs><linearGradient id="a" x1="24.517" x2="24.517" y1=".539" y2="48.554" gradientUnits="userSpaceOnUse"><stop stop-color="#F4815A"/><stop offset="1" stop-color="#F25E53"/></linearGradient></defs></svg>
